packages/editor-ui/public/n8n-logo-collapsed.svg

<svg width="32" height="16" viewBox="0 0 32 16" fill="none" xmlns="http://www.w3.org/2000/svg">
<path fill-rule="evenodd" clip-rule="evenodd" d="M28.0125 6.4C26.5214 6.4 25.2686 5.38018 24.9133 4H21.2456C20.4635 4 19.796 4.56546 19.6674 5.33696L19.5359 6.12608C19.411 6.87531 19.032 7.52738 18.496 8C19.032 8.47262 19.411 9.12469 19.5359 9.87392L19.6674 10.663C19.796 11.4345 20.4635 12 21.2456 12H21.7133C22.0686 10.6198 23.3214 9.6 24.8125 9.6C26.5798 9.6 28.0125 11.0327 28.0125 12.8C28.0125 14.5673 26.5798 16 24.8125 16C23.3214 16 22.0685 14.9802 21.7133 13.6H21.2456C19.6813 13.6 18.3463 12.4691 18.0891 10.9261L17.9576 10.137C17.829 9.36546 17.1615 8.8 16.3794 8.8H15.1117C14.7565 10.1802 13.5036 11.2 12.0125 11.2C10.5214 11.2 9.26855 10.1802 8.91331 8.8H7.11169C6.75645 10.1802 5.50357 11.2 4.0125 11.2C2.24519 11.2 0.8125 9.76731 0.8125 8C0.8125 6.23269 2.24519 4.8 4.0125 4.8C5.50357 4.8 6.75645 5.81982 7.11169 7.2H8.91331C9.26855 5.81982 10.5214 4.8 12.0125 4.8C13.5036 4.8 14.7565 5.81982 15.1117 7.2H16.3794C17.1615 7.2 17.829 6.63454 17.9576 5.86304L18.0891 5.07392C18.3463 3.53092 19.6813 2.4 21.2456 2.4L24.9133 2.4C25.2685 1.01982 26.5214 0 28.0125 0C29.7798 0 31.2125 1.43269 31.2125 3.2C31.2125 4.96731 29.7798 6.4 28.0125 6.4ZM28.0125 4.8C28.8962 4.8 29.6125 4.08366 29.6125 3.2C29.6125 2.31634 28.8962 1.6 28.0125 1.6C27.1288 1.6 26.4125 2.31634 26.4125 3.2C26.4125 4.08366 27.1288 4.8 28.0125 4.8ZM4.0125 9.6C4.89616 9.6 5.6125 8.88366 5.6125 8C5.6125 7.11634 4.89616 6.4 4.0125 6.4C3.12884 6.4 2.4125 7.11634 2.4125 8C2.4125 8.88366 3.12884 9.6 4.0125 9.6ZM13.6125 8C13.6125 8.88366 12.8962 9.6 12.0125 9.6C11.1288 9.6 10.4125 8.88366 10.4125 8C10.4125 7.11634 11.1288 6.4 12.0125 6.4C12.8962 6.4 13.6125 7.11634 13.6125 8ZM26.4125 12.8C26.4125 13.6837 25.6962 14.4 24.8125 14.4C23.9288 14.4 23.2125 13.6837 23.2125 12.8C23.2125 11.9163 23.9288 11.2 24.8125 11.2C25.6962 11.2 26.4125 11.9163 26.4125 12.8Z" fill="#EA4B71"/>
</svg>

<svg xmlns="http://www.w3.org/2000/svg" width="32" height="16" fill="none"><path fill="#EA4B71" fill-rule="evenodd" d="M28.013 6.4a3.2 3.2 0 0 1-3.1-2.4h-3.667a1.6 1.6 0 0 0-1.579 1.337l-.131.79A3.2 3.2 0 0 1 18.496 8a3.2 3.2 0 0 1 1.04 1.874l.131.789A1.6 1.6 0 0 0 21.246 12h.467a3.201 3.201 0 0 1 6.3.8 3.2 3.2 0 0 1-6.3.8h-.467a3.2 3.2 0 0 1-3.157-2.674l-.131-.789A1.6 1.6 0 0 0 16.379 8.8h-1.267a3.201 3.201 0 0 1-6.199 0H7.112a3.201 3.201 0 0 1-6.3-.8 3.2 3.2 0 0 1 6.3-.8h1.801a3.201 3.201 0 0 1 6.199 0h1.267a1.6 1.6 0 0 0 1.579-1.337l.131-.79A3.2 3.2 0 0 1 21.246 2.4h3.667a3.201 3.201 0 0 1 6.3.8 3.2 3.2 0 0 1-3.2 3.2m0-1.6a1.6 1.6 0 1 0 0-3.2 1.6 1.6 0 0 0 0 3.2m-24 4.8a1.6 1.6 0 1 0 0-3.2 1.6 1.6 0 0 0 0 3.2m9.6-1.6a1.6 1.6 0 1 1-3.2 0 1.6 1.6 0 0 1 3.2 0m12.8 4.8a1.6 1.6 0 1 1-3.2 0 1.6 1.6 0 0 1 3.2 0" clip-rule="evenodd"/></svg>
